svg/briefcase_eye_outline.svg

<svg xmlns="http://www.w3.org/2000/svg" viewBox="0 0 24 24"><path d="M17 18c.6 0 1 .4 1 1s-.4 1-1 1-1-.4-1-1 .4-1 1-1m0-3c-2.7 0-5.1 1.7-6 4 .9 2.3 3.3 4 6 4s5.1-1.7 6-4c-.9-2.3-3.3-4-6-4m0 6.5c-1.4 0-2.5-1.1-2.5-2.5s1.1-2.5 2.5-2.5 2.5 1.1 2.5 2.5-1.1 2.5-2.5 2.5m-7.9-1.8-.3-.7H4V8h16v5.6c.7.3 1.4.6 2 1.1V8c0-.5-.2-1-.6-1.4S20.6 6 20 6h-4V4c0-.6-.2-1-.6-1.4S14.6 2 14 2h-4c-.6 0-1 .2-1.4.6S8 3.4 8 4v2H4c-.6 0-1 .2-1.4.6S2 7.5 2 8v11c0 .5.2 1 .6 1.4s.8.6 1.4.6h5.8c-.3-.4-.5-.8-.7-1.3M10 4h4v2h-4z"/></svg>

<svg xmlns="http://www.w3.org/2000/svg" id="mdi-briefcase-eye-outline" viewBox="0 0 24 24"><path d="M17 18C17.6 18 18 18.4 18 19S17.6 20 17 20 16 19.6 16 19 16.4 18 17 18M17 15C14.3 15 11.9 16.7 11 19C11.9 21.3 14.3 23 17 23S22.1 21.3 23 19C22.1 16.7 19.7 15 17 15M17 21.5C15.6 21.5 14.5 20.4 14.5 19S15.6 16.5 17 16.5 19.5 17.6 19.5 19 18.4 21.5 17 21.5M9.1 19.7L8.8 19H4V8H20V13.6C20.7 13.9 21.4 14.2 22 14.7V8C22 7.5 21.8 7 21.4 6.6C21 6.2 20.6 6 20 6H16V4C16 3.4 15.8 3 15.4 2.6C15 2.2 14.6 2 14 2H10C9.4 2 9 2.2 8.6 2.6C8.2 3 8 3.4 8 4V6H4C3.4 6 3 6.2 2.6 6.6C2.2 7 2 7.5 2 8V19C2 19.5 2.2 20 2.6 20.4C3 20.8 3.4 21 4 21H9.8C9.5 20.6 9.3 20.2 9.1 19.7M10 4H14V6H10V4Z" /></svg>
